mimes/16/application-json.svg

<?xml version="1.0" encoding="UTF-8" standalone="no"?>
<svg
   xmlns:dc="http://purl.org/dc/elements/1.1/"
   xmlns:cc="http://creativecommons.org/ns#"
   xmlns:rdf="http://www.w3.org/1999/02/22-rdf-syntax-ns#"
   xmlns:svg="http://www.w3.org/2000/svg"
   xmlns="http://www.w3.org/2000/svg"
   xmlns:xlink="http://www.w3.org/1999/xlink"
   version="1.1"
   width="16"
   height="16"
   id="svg3810">
  <defs
     id="defs3812">
    <linearGradient
       x1="23.99999"
       y1="6.9230647"
       x2="23.99999"
       y2="41.076912"
       id="linearGradient3988"
       xlink:href="#linearGradient3977"
       gradientUnits="userSpaceOnUse"
       gradientTransform="matrix(0.24324324,0,0,0.35135133,2.1621636,-0.43242804)" />
    <linearGradient
       id="linearGradient3977">
      <stop
         id="stop3979"
         style="stop-color:#ffffff;stop-opacity:1"
         offset="0" />
      <stop
         id="stop3981"
         style="stop-color:#ffffff;stop-opacity:0.23529412"
         offset="0" />
      <stop
         id="stop3983"
         style="stop-color:#ffffff;stop-opacity:0.15686275"
         offset="1" />
      <stop
         id="stop3985"
         style="stop-color:#ffffff;stop-opacity:0.39215687"
         offset="1" />
    </linearGradient>
    <linearGradient
       id="linearGradient3600">
      <stop
         id="stop3602"
         style="stop-color:#f4f4f4;stop-opacity:1"
         offset="0" />
      <stop
         id="stop3604"
         style="stop-color:#dbdbdb;stop-opacity:1"
         offset="1" />
    </linearGradient>
    <linearGradient
       x1="25.132275"
       y1="0.98520643"
       x2="25.132275"
       y2="47.013336"
       id="linearGradient3806"
       xlink:href="#linearGradient3600"
       gradientUnits="userSpaceOnUse"
       gradientTransform="matrix(0.28571361,0,0,0.30419701,1.1428727,0.2326048)" />
    <linearGradient
       id="linearGradient3104-9">
      <stop
         id="stop3106-5"
         style="stop-color:#000000;stop-opacity:0.33950618"
         offset="0" />
      <stop
         id="stop3108-5"
         style="stop-color:#000000;stop-opacity:0.24691358"
         offset="1" />
    </linearGradient>
    <linearGradient
       x1="-51.786404"
       y1="50.786446"
       x2="-51.786404"
       y2="2.9062471"
       id="linearGradient3019"
       xlink:href="#linearGradient3104-9"
       gradientUnits="userSpaceOnUse"
       gradientTransform="matrix(0.25378586,0,0,0.30501865,19.128979,-0.68547704)" />
    <linearGradient
       gradientTransform="matrix(0.34025771,0.09076733,-0.05512078,0.20481361,1.2325009,-0.0196912)"
       gradientUnits="userSpaceOnUse"
       xlink:href="#linearGradient937"
       id="linearGradient3192-0-3-3"
       y2="63.892433"
       x2="27.857473"
       y1="-4.4240084"
       x1="16.790405" />
    <linearGradient
       id="linearGradient937">
      <stop
         id="stop933"
         offset="0"
         style="stop-color:#9bdb4d;stop-opacity:1" />
      <stop
         id="stop935"
         offset="1"
         style="stop-color:#3a9104;stop-opacity:1" />
    </linearGradient>
    <linearGradient
       xlink:href="#linearGradient4169"
       id="linearGradient911"
       x1="61"
       y1="63"
       x2="67"
       y2="63"
       gradientUnits="userSpaceOnUse" />
    <linearGradient
       id="linearGradient4169">
      <stop
         style="stop-color:#43d6b5;stop-opacity:1"
         offset="0"
         id="stop4171" />
      <stop
         style="stop-color:#0e9a83;stop-opacity:1"
         offset="1"
         id="stop4173" />
    </linearGradient>
    <linearGradient
       xlink:href="#linearGradient937"
       id="linearGradient913"
       gradientUnits="userSpaceOnUse"
       x1="60.520607"
       y1="1.5206056"
       x2="60.551304"
       y2="118.53259" />
  </defs>
  <metadata
     id="metadata3815">
    <rdf:RDF>
      <cc:Work
         rdf:about="">
        <dc:format>image/svg+xml</dc:format>
        <dc:type
           rdf:resource="http://purl.org/dc/dcmitype/StillImage" />
        <dc:title />
      </cc:Work>
    </rdf:RDF>
  </metadata>
  <path
     style="display:inline;fill:url(#linearGradient3806);fill-opacity:1;stroke:none"
     id="path4160"
     d="m 3,1 c 2.2915074,0 9.999988,8.904e-4 9.999988,8.904e-4 L 13,15 C 13,15 6.3333332,15 3,15 3,10.333334 3,5.6666664 3,1 Z" />
  <path
     style="fill:none;stroke:url(#linearGradient3988);stroke-width:1;stroke-linecap:round;stroke-linejoin:miter;stroke-miterlimit:4;stroke-dasharray:none;stroke-dashoffset:0;stroke-opacity:1"
     id="rect6741-1"
     d="m 12.5,14.5 -9.0000001,0 0,-13 L 12.5,1.5 Z" />
  <path
     style="display:inline;fill:none;stroke:url(#linearGradient3019);stroke-width:0.99992192;stroke-linecap:butt;stroke-linejoin:round;stroke-miterlimit:4;stroke-dasharray:none;stroke-dashoffset:0;stroke-opacity:1"
     id="path4160-8"
     d="m 2.4999621,0.49997396 c 2.5206756,0 11.0000629,9.54e-4 11.0000629,9.54e-4 l 1.3e-5,14.99909804 c 0,0 -7.3333841,0 -11.000076,0 0,-5.000017 0,-10.000035 0,-15.00005204 z" />
  <g
     transform="translate(-0.00683605,0.0166015)"
     id="g833">
    <path
       id="path3873-9-6"
       d="M 7.0117188,5.001953 C 6.5671755,5.0019574 5.5533715,5.067143 5.3300781,5.2031249 5.1088306,5.337277 5.0019531,5.7797364 5.0019531,6.0664061 v 0.7519532 c 0,0.1709036 -0.075732,0.2904709 -0.2109375,0.375 C 4.6578569,7.2760563 4.278511,7.5117206 4.0019531,7.5117187 v 0.9550781 c 0.5449213,1.3e-6 1,0.3535115 1,0.6953121 v 0.705079 c 0,0.3142371 0.1016857,0.7470571 0.3085938,0.8867181 0.2089542,0.141498 1.2279482,0.207262 1.7011719,0.210938 V 10.001953 C 6.7761303,9.9982629 6.2490065,9.9541369 6.1445312,9.8769529 6.0400516,9.7997729 5.9902344,9.6917029 5.9902344,9.5410159 V 8.9199218 c 0,-0.369366 -0.5562674,-0.8518123 -1.0253906,-0.9179688 V 7.96289 C 5.433967,7.8912249 5.9902344,7.449678 5.9902344,7.0839843 V 6.4726561 c 0,-0.1506844 0.049818,-0.2508247 0.1542968,-0.3261718 0.1065245,-0.077177 0.633648,-0.1255737 0.8671876,-0.1347656 z M 9,5.001953 v 1.0097657 c 0.23354,0.00919 0.7606635,0.057589 0.8671875,0.1347656 0.104482,0.075347 0.1542965,0.1754874 0.1542965,0.3261718 v 0.6113282 c 0,0.3656937 0.558221,0.8072406 1.027344,0.8789062 v 0.039063 c -0.469123,0.066156 -1.027344,0.5486028 -1.027344,0.9179688 v 0.6210936 c 0,0.150687 -0.049816,0.258757 -0.1542965,0.335937 C 9.7627125,9.9541409 9.235589,9.9982529 9,10.001953 v 0.962891 c 0.473224,-0.0037 1.49417,-0.06944 1.703125,-0.210938 0.206908,-0.139661 0.306641,-0.572481 0.306641,-0.8867181 v -0.705079 c 0,-0.3418006 0.457032,-0.6953108 1.001953,-0.6953121 V 7.5117187 c -0.276558,1.9e-6 -0.657857,-0.2356624 -0.791016,-0.3183594 -0.1352,-0.084529 -0.210937,-0.2040964 -0.210937,-0.375 V 6.0664061 c 0,-0.2866697 -0.104925,-0.7291291 -0.326172,-0.8632812 C 10.4603,5.067143 9.444543,5.0019574 9,5.001953 Z"
       style="color:#000000;font-style:normal;font-variant:normal;font-weight:600;font-stretch:normal;font-size:19px;line-height:125%;font-family:'Open Sans';-inkscape-font-specification:'Open Sans Semi-Bold';text-align:start;letter-spacing:0px;word-spacing:0px;writing-mode:lr-tb;text-anchor:start;clip-rule:nonzero;display:inline;overflow:visible;visibility:visible;opacity:1;isolation:auto;mix-blend-mode:normal;color-interpolation:sRGB;color-interpolation-filters:linearRGB;solid-color:#000000;solid-opacity:1;fill:url(#linearGradient3192-0-3-3);fill-opacity:1;fill-rule:nonzero;stroke:none;stroke-width:1;stroke-linecap:butt;stroke-linejoin:miter;stroke-miterlimit:4;stroke-dasharray:none;stroke-dashoffset:0;stroke-opacity:1;marker:none;color-rendering:auto;image-rendering:auto;shape-rendering:auto;text-rendering:auto;enable-background:accumulate" />
    <g
       id="text828"
       style="font-style:normal;font-weight:normal;font-size:40px;line-height:1.25;font-family:sans-serif;letter-spacing:0px;word-spacing:0px;fill:url(#linearGradient911);fill-opacity:1;stroke:none"
       aria-label=";"
       transform="matrix(0.25,0,0,0.25,-8,-8.25)">
      <path
         id="path832"
         style="font-style:normal;font-variant:normal;font-weight:normal;font-stretch:normal;font-size:32px;font-family:'Noto Sans Gothic';-inkscape-font-specification:'Noto Sans Gothic, Normal';font-variant-ligatures:normal;font-variant-caps:normal;font-variant-numeric:normal;font-feature-settings:normal;text-align:start;writing-mode:lr-tb;text-anchor:start;fill:url(#linearGradient913);fill-opacity:1"
         d="m 63,57 h 4 v 4 h -4 z m 0,8 h 4 v 4 l -3,4 h -3 l 2,-4 z" />
    </g>
  </g>
</svg>

<?xml version="1.0" encoding="UTF-8" standalone="no"?>
<svg
   xmlns:dc="http://purl.org/dc/elements/1.1/"
   xmlns:cc="http://creativecommons.org/ns#"
   xmlns:rdf="http://www.w3.org/1999/02/22-rdf-syntax-ns#"
   xmlns:svg="http://www.w3.org/2000/svg"
   xmlns="http://www.w3.org/2000/svg"
   xmlns:xlink="http://www.w3.org/1999/xlink"
   id="svg3810"
   height="16"
   width="16"
   version="1.1">
  <defs
     id="defs3812">
    <linearGradient
       gradientTransform="matrix(0.24324324,0,0,0.35135133,2.1621636,-0.43242804)"
       gradientUnits="userSpaceOnUse"
       xlink:href="#linearGradient3977"
       id="linearGradient3988"
       y2="41.076912"
       x2="23.99999"
       y1="6.9230647"
       x1="23.99999" />
    <linearGradient
       id="linearGradient3977">
      <stop
         offset="0"
         style="stop-color:#ffffff;stop-opacity:1"
         id="stop3979" />
      <stop
         offset="0"
         style="stop-color:#ffffff;stop-opacity:0.23529412"
         id="stop3981" />
      <stop
         offset="1"
         style="stop-color:#ffffff;stop-opacity:0.15686275"
         id="stop3983" />
      <stop
         offset="1"
         style="stop-color:#ffffff;stop-opacity:0.39215687"
         id="stop3985" />
    </linearGradient>
    <linearGradient
       id="linearGradient3600">
      <stop
         offset="0"
         style="stop-color:#f4f4f4;stop-opacity:1"
         id="stop3602" />
      <stop
         offset="1"
         style="stop-color:#dbdbdb;stop-opacity:1"
         id="stop3604" />
    </linearGradient>
    <linearGradient
       gradientTransform="matrix(0.28571361,0,0,0.30419701,1.1428727,0.2326048)"
       gradientUnits="userSpaceOnUse"
       xlink:href="#linearGradient3600"
       id="linearGradient3806"
       y2="47.013336"
       x2="25.132275"
       y1="0.98520643"
       x1="25.132275" />
    <linearGradient
       id="linearGradient3104-9">
      <stop
         offset="0"
         style="stop-color:#000000;stop-opacity:0.33950618"
         id="stop3106-5" />
      <stop
         offset="1"
         style="stop-color:#000000;stop-opacity:0.24691358"
         id="stop3108-5" />
    </linearGradient>
    <linearGradient
       gradientTransform="matrix(0.25378586,0,0,0.30501865,19.128979,-0.68547704)"
       gradientUnits="userSpaceOnUse"
       xlink:href="#linearGradient3104-9"
       id="linearGradient3019"
       y2="2.9062471"
       x2="-51.786404"
       y1="50.786446"
       x1="-51.786404" />
    <linearGradient
       x1="16.790405"
       y1="-4.4240084"
       x2="27.857473"
       y2="63.892433"
       id="linearGradient3192-0-3-3"
       xlink:href="#linearGradient937"
       gradientUnits="userSpaceOnUse"
       gradientTransform="matrix(0.34025771,0.09076733,-0.05512078,0.20481361,1.2256648,-0.0030897)" />
    <linearGradient
       id="linearGradient937">
      <stop
         style="stop-color:#9bdb4d;stop-opacity:1"
         offset="0"
         id="stop933" />
      <stop
         style="stop-color:#3a9104;stop-opacity:1"
         offset="1"
         id="stop935" />
    </linearGradient>
  </defs>
  <metadata
     id="metadata3815">
    <rdf:RDF>
      <cc:Work
         rdf:about="">
        <dc:format>image/svg+xml</dc:format>
        <dc:type
           rdf:resource="http://purl.org/dc/dcmitype/StillImage" />
        <dc:title></dc:title>
      </cc:Work>
    </rdf:RDF>
  </metadata>
  <path
     d="m 3,1 c 2.2915074,0 9.999988,8.904e-4 9.999988,8.904e-4 L 13,15 C 13,15 6.3333332,15 3,15 3,10.333334 3,5.6666664 3,1 Z"
     id="path4160"
     style="display:inline;fill:url(#linearGradient3806);fill-opacity:1;stroke:none" />
  <path
     d="m 12.5,14.5 -9.0000001,0 0,-13 L 12.5,1.5 Z"
     id="rect6741-1"
     style="fill:none;stroke:url(#linearGradient3988);stroke-width:1;stroke-linecap:round;stroke-linejoin:miter;stroke-miterlimit:4;stroke-dasharray:none;stroke-dashoffset:0;stroke-opacity:1" />
  <path
     d="m 2.4999621,0.49997396 c 2.5206756,0 11.0000629,9.54e-4 11.0000629,9.54e-4 l 1.3e-5,14.99909804 c 0,0 -7.3333841,0 -11.000076,0 0,-5.000017 0,-10.000035 0,-15.00005204 z"
     id="path4160-8"
     style="display:inline;fill:none;stroke:url(#linearGradient3019);stroke-width:0.99992192;stroke-linecap:butt;stroke-linejoin:round;stroke-miterlimit:4;stroke-dasharray:none;stroke-dashoffset:0;stroke-opacity:1" />
  <path
     id="path3873-9-6"
     d="M 7.0039062 5.0175781 C 6.559363 5.0175825 5.545559 5.0827681 5.3222656 5.21875 C 5.1010181 5.3529021 4.9941406 5.7953616 4.9941406 6.0820312 L 4.9941406 6.8339844 C 4.9941406 7.004888 4.9184086 7.1244553 4.7832031 7.2089844 C 4.6500444 7.2916814 4.2706985 7.5273456 3.9941406 7.5273438 L 3.9941406 8.4824219 C 4.5390619 8.4824232 4.9941406 8.8359338 4.9941406 9.1777344 L 4.9941406 9.8847656 C 4.9941406 10.199003 5.0958263 10.631823 5.3027344 10.771484 C 5.5116886 10.912982 6.5306825 10.978746 7.0039062 10.982422 L 7.0039062 10.019531 C 6.7683177 10.01584 6.2411941 9.9697621 6.1367188 9.8925781 C 6.0322391 9.8153981 5.9824219 9.7092807 5.9824219 9.5585938 L 5.9824219 8.9355469 C 5.9824219 8.5661809 5.4261544 8.0837346 4.9570312 8.0175781 L 4.9570312 7.9785156 C 5.4261544 7.9068505 5.9824219 7.4653031 5.9824219 7.0996094 L 5.9824219 6.4882812 C 5.9824219 6.3375968 6.03224 6.2374565 6.1367188 6.1621094 C 6.2432432 6.0849324 6.7703666 6.0365356 7.0039062 6.0273438 L 7.0039062 5.0175781 z M 8.9921875 5.0175781 L 8.9921875 6.0273438 C 9.2257274 6.0365338 9.7528509 6.0849328 9.859375 6.1621094 C 9.963857 6.2374564 10.013672 6.3375969 10.013672 6.4882812 L 10.013672 7.0996094 C 10.013672 7.4653031 10.571893 7.90685 11.041016 7.9785156 L 11.041016 8.0195312 C 10.571893 8.0856872 10.013672 8.568134 10.013672 8.9375 L 10.013672 9.5585938 C 10.013672 9.7092807 9.9638555 9.8153981 9.859375 9.8925781 C 9.7548999 9.9697661 9.2277764 10.01583 8.9921875 10.019531 L 8.9921875 10.982422 C 9.4654115 10.978722 10.486358 10.912982 10.695312 10.771484 C 10.902221 10.631823 11.003906 10.199003 11.003906 9.8847656 L 11.003906 9.1777344 C 11.003906 8.8359338 11.460938 8.4824232 12.005859 8.4824219 L 12.005859 7.5273438 C 11.729301 7.5273456 11.34605 7.2916814 11.212891 7.2089844 C 11.077691 7.1244554 11.003906 7.004888 11.003906 6.8339844 L 11.003906 6.0820312 C 11.003906 5.7953615 10.898981 5.3529021 10.677734 5.21875 C 10.45444 5.0827681 9.4367304 5.0175825 8.9921875 5.0175781 z M 7.7421875 6.015625 L 7.7421875 7.015625 L 8.7421875 7.015625 L 8.7421875 6.015625 L 7.7421875 6.015625 z M 7.7421875 8.015625 L 7.7421875 9.015625 L 7.2421875 10.017578 L 7.9921875 10.017578 L 8.7421875 9.015625 L 8.7421875 8.015625 L 7.7421875 8.015625 z "
     style="color:#000000;font-style:normal;font-variant:normal;font-weight:600;font-stretch:normal;font-size:19px;line-height:125%;font-family:'Open Sans';-inkscape-font-specification:'Open Sans Semi-Bold';text-align:start;letter-spacing:0px;word-spacing:0px;writing-mode:lr-tb;text-anchor:start;clip-rule:nonzero;display:inline;overflow:visible;visibility:visible;opacity:1;isolation:auto;mix-blend-mode:normal;color-interpolation:sRGB;color-interpolation-filters:linearRGB;solid-color:#000000;solid-opacity:1;fill:url(#linearGradient3192-0-3-3);fill-opacity:1;fill-rule:nonzero;stroke:none;stroke-width:1;stroke-linecap:butt;stroke-linejoin:miter;stroke-miterlimit:4;stroke-dasharray:none;stroke-dashoffset:0;stroke-opacity:1;marker:none;color-rendering:auto;image-rendering:auto;shape-rendering:auto;text-rendering:auto;enable-background:accumulate" />
</svg>
